X: 37609
T: Smoky Bar, The
R: reel
M: 4/4
K: Dmajor
D2 AD BDAD|D2 AF EDB,A,|D2 AD BDAB|dBAF EGFE|
D2 AD BDAD|D2 AF EDB,A,|D2 AD BDAB|dBAF EFAB|
d2 fd efdB|A2 FD EDB,A,|d2fd efdf|afed BABc|
d2 fd efdB|A2 FD EDB,A,|d2 fd efdf|afed BAFE|D4||

